icons/1_Primary/Envato.svg

<svg width="1024" height="1024" fill="none" xmlns="http://www.w3.org/2000/svg"><g clip-path="url(#a)"><path d="M512 1024c282.77 0 512-229.23 512-512S794.77 0 512 0 0 229.23 0 512s229.23 512 512 512Z" fill="#98DC9A"/><path d="M683.69 278.25c-70.62-82.87-299.22 77.68-297.86 284.4a9.632 9.632 0 0 1-13.218 8.943 9.63 9.63 0 0 1-4.682-4.003 220.35 220.35 0 0 1-8.58-162.78 8.996 8.996 0 0 0-3.953-11.019A8.999 8.999 0 0 0 343.9 396a220.573 220.573 0 0 0-58.65 150.11c0 145.48 120.5 224.15 221.62 221.86 311.89-7.13 239.78-415.81 176.82-489.72Z" fill="#fff"/></g><defs><clipPath id="a"><path fill="#fff" d="M0 0h1024v1024H0z"/></clipPath></defs></svg>

<svg width="1024" height="1024" viewBox="0 0 1024 1024" fill="none" xmlns="http://www.w3.org/2000/svg">
<g clip-path="url(#clip0_2_2094)">
<path d="M512 1024C794.77 1024 1024 794.77 1024 512C1024 229.23 794.77 0 512 0C229.23 0 0 229.23 0 512C0 794.77 229.23 1024 512 1024Z" fill="#98DC9A"/>
<path d="M683.69 278.25C613.07 195.38 384.47 355.93 385.83 562.65C385.831 564.759 385.141 566.81 383.864 568.488C382.587 570.166 380.795 571.378 378.762 571.939C376.729 572.5 374.569 572.379 372.612 571.593C370.655 570.807 369.01 569.401 367.93 567.59C344.368 516.422 341.297 458.172 359.35 404.81C360.114 402.804 360.135 400.591 359.41 398.57C358.685 396.549 357.262 394.854 355.397 393.791C353.532 392.727 351.348 392.366 349.24 392.771C347.132 393.176 345.238 394.321 343.9 396C306.116 436.848 285.166 490.467 285.25 546.11C285.25 691.59 405.75 770.26 506.87 767.97C818.76 760.84 746.65 352.16 683.69 278.25Z" fill="white"/>
</g>
<defs>
<clipPath id="clip0_2_2094">
<rect width="1024" height="1024" fill="white"/>
</clipPath>
</defs>
</svg>
